X:1
T:Young Alan (3)
M:6/8
L:1/8
K:C
 D2 D DEF| A2 A D2 D| G2 G EED| C3- C2 E/2E/2| D2 D DEG| A2 A GAc|\
 A2 A G/2 G3/2 E| D3- D2||
